images/user-nav-login.svg

<svg width="14" height="15" viewBox="0 0 14 15" fill="none" xmlns="http://www.w3.org/2000/svg">
<path fill-rule="evenodd" clip-rule="evenodd" d="M8 1.52458C8 1.15639 8.29848 0.85791 8.66667 0.85791H11.3333C11.8638 0.85791 12.3725 1.06862 12.7475 1.4437C13.1226 1.81877 13.3333 2.32748 13.3333 2.85791V12.1912C13.3333 12.7217 13.1226 13.2304 12.7475 13.6055C12.3725 13.9805 11.8638 14.1912 11.3333 14.1912H8.66667C8.29848 14.1912 8 13.8928 8 13.5246C8 13.1564 8.29848 12.8579 8.66667 12.8579H11.3333C11.5101 12.8579 11.6797 12.7877 11.8047 12.6626C11.9298 12.5376 12 12.3681 12 12.1912V2.85791C12 2.6811 11.9298 2.51153 11.8047 2.38651C11.6797 2.26148 11.5101 2.19124 11.3333 2.19124H8.66667C8.29848 2.19124 8 1.89277 8 1.52458ZM4.86189 3.71984C5.12224 3.45949 5.54435 3.45949 5.8047 3.71984L9.1338 7.04894C9.15092 7.06576 9.16714 7.0835 9.18238 7.10207C9.21424 7.14087 9.24106 7.18243 9.26283 7.22586C9.30794 7.31572 9.33333 7.41718 9.33333 7.52458C9.33333 7.6332 9.30735 7.73576 9.26127 7.82637C9.24098 7.86632 9.21641 7.90466 9.18756 7.94069C9.17076 7.96169 9.15271 7.98166 9.13354 8.00047L5.8047 11.3293C5.54435 11.5897 5.12224 11.5897 4.86189 11.3293C4.60154 11.069 4.60154 10.6469 4.86189 10.3865L7.05715 8.19124H0.666667C0.298477 8.19124 0 7.89277 0 7.52458C0 7.15639 0.298477 6.85791 0.666667 6.85791H7.05715L4.86189 4.66265C4.60154 4.4023 4.60154 3.98019 4.86189 3.71984Z" fill="#2D3440"/>
</svg>

<svg xmlns="http://www.w3.org/2000/svg" width="14" height="15" fill="none"><path fill="#2D3440" fill-rule="evenodd" d="M8 1.525c0-.369.298-.667.667-.667h2.666a2 2 0 0 1 2 2v9.333a2 2 0 0 1-2 2H8.667a.667.667 0 1 1 0-1.333h2.666A.666.666 0 0 0 12 12.19V2.858a.666.666 0 0 0-.667-.667H8.667A.667.667 0 0 1 8 1.525ZM4.862 3.72c.26-.26.682-.26.943 0l3.329 3.329a.673.673 0 0 1 .2.476.664.664 0 0 1-.2.475l-3.33 3.33a.667.667 0 1 1-.942-.944l2.195-2.195H.667a.667.667 0 1 1 0-1.333h6.39L4.862 4.663a.667.667 0 0 1 0-.943Z" clip-rule="evenodd"/></svg>
